X:1
T:Berkeley
T:C Major                    Jacob Kimball, 1793
T:Isaac Watts, 1707 (Hymn 62, Book 1)               86. 86. (C. M.)                               
T:Transcribed from Kimball's Rural Harmony, 1793.
%%score [ 1 2 3 4 ]
L:1/8
Q:1/4=80
M:2/2
K:C
V:1 treble nm="Tr." snm="Tr."
V:2 treble nm="C." snm="C."
V:3 treble-8 nm="T." snm="T."
V:4 bass nm="B." snm="B."
V:1
"_2.  Let  all  that  dwell  above  the  sky,  And  air,  and  earth, and seas,  Conspire  to  lift  thy  glories  high,   And   speak  thine  end  –  less    praise.    The    whole  cre  – a  –  tion""_1. Come, let us join our cheerful songs  With angels round the throne;  Ten thousand thousand are their tongues,  But all  their   joys    are       one.       Wor   –   thy  the  Lamb  that" C2 | %1
 E2 G2 c2 d2 | c2 d2 e3 B | c2 A2 G2 G2 | G6 C2 | E2 G2 c2 d2 | A2 B2 c3 f | fe dc ed cB | %8
 c4 z2 c>d |: e2 B2 c2 d2 | %10
"_1. died, they cry,  To   be   ex   –   al    –  ted     thus:    Wor   –   thy          the        Lamb,      our       lips      re    –    ply,      For            he      was      slain   for      us.      Wor–""_2. join in one,  To     bless  the      sa   –  cred   name    Of          him         that        sits          up   –    on       the       throne,  And           to       a    –    dore   the    Lamb.   The" e2 B2 c3 f | %11
 fe dc dc BA | G6 B2 | c2 A2 A2 B2 | c2 A2 d2 B2 | c2 c2 ed cB |1 c4 z2 c>d :|2 c8 |] %18
V:2
 E2 | E2 D2 E2 D2 | C2 G2 G3 G | G2 A2 GF ED | E4 z2 E2 | E2 D2 E2 D2 | C2 G2 G3 F | E2 A2 G2 G2 | %8
 [EG]4 z2 G2 |: G2 G2 C2 G2 | G2 F2 G3 F | E2 E2 A2 A2 | D4 z2 G2 | G2 A2 ^F2 G2 | %14
 G2 F/E/F/G/ A2 G2 | G2 G2 G2 G2 |1 [EG]4 z2 G2 :|2 [EG]8 |] %18
V:3
"_1. Come, let us join our cheerful songs  With angels round the throne;  Ten thousand thousand are their tongues,  But all  their   joys    are       one.       Wor   –   thy  the  Lamb  that""_2.  Let  all  that  dwell  above  the  sky,  And  air,  and  earth, and seas,  Conspire  to  lift  thy  glories  high,   And   speak  thine  end  –  less    praise.    The    whole  cre  – a  –  tion" G2 | %1
 c2 G2 E2 G2 | A2 B2 c3 d | e2 f2 ed cB | c4 z2 G2 | c2 G2 E2 G2 | c2 d2 e3 a | ag fe gf ed | %8
 c4 z2 e>f |: g2 G2 A2 B2 | %10
"_1. died, they cry,  To   be   ex   –   al    –  ted     thus:    Wor   –   thy          the        Lamb,      our       lips      re    –    ply,      For            he      was      slain   for      us.      Wor–""_2. join in one,  To     bless  the      sa   –  cred   name    Of          him         that        sits          up   –    on       the       throne,  And           to       a    –    dore   the    Lamb.   The" c2 d2 e3 a | %11
 ag fe fe dc | G4 z2 GA/B/ | c2 B/A/B/c/ d2 c/B/c/d/ | e2 d/c/d/e/ f2 e/d/e/f/ | gc g[cc'] gf ed |1 %16
 c4 z2 e>f :|2 c8 |] %18
V:4
 C,2 | C,2 B,,2 C,2 B,,2 | A,,2 G,,2 C,3 G, | C2 F,2 G,2 G,,2 | C,6 C,2 | C,2 B,,2 C,2 B,,2 | %6
 A,,2 G,,2 C,3 D, | E,2 F,2 G,2 G,,2 | C,4 z2 C,2 |: C2 B,2 A,2 G,F, | E,2 D,2 C,3 D, | %11
 E,2 A,2 F,2 ^F,2 | G,6 G,2 | C,2 F,2 D,2 G,2 | E,2 A,2 F,2 G,2 | C2 E,F, G,2 G,,2 |1 %16
 C,4 z2 C,2 :|2 C,8 |] %18

